X:1
T:Alleluia
T:Alleluia 
T:Tussenzang
L:1/8
M:2/4
K:F
V:1 treble nm="Piano" snm="Pno."
V:1
"^refrein\n" AA AF | G/FD/ C2 | FF FF | A/GF/ G2 | AA AF | G/FD/ CF | D2 EE | F4 | AA AF | %9
w: Al- le- lu- ia,
|al- le- lu- ia,|al- le- lu- ia,|al- le- lu- ia,|Al- le- lu- ia,|al- le- lu- ia, a|al- le- lu-|ia.|Woord van God tot|
w: ||||||||Le- vend brood voor|
w: ||||||||Rijk van God, van-|
 G/FD/ CC | FF FF | A/GF/ G2 | AA AF | G/FD/ CF | D2 EE | F4 |] %16
w: ie- der ge- spro- ken.|Dat wij sa- men|zin- gend ver- staan:|'twoord van God tot|ie- der ge- spro- ken.|Al- le- lu-|ia.|
w: al- len ge- bro- ken.|Om de weg ten|ein- de te gaan:|'tle- vend brood voor|al- len ge- bro- ken.|Al- le- lu-|ia.|
w: daag reeds ont- lo- ken.|Al is ver en|moei- lijk de baan:|'trijk van God, van-|daag reeds ont- lo- ken.|Al- le- lu-|ia.|

